src/assets/images/svg/investment.svg

<svg height="512" viewBox="0 0 512 512" width="512" xmlns="http://www.w3.org/2000/svg"><path d="m142 256a143.715 143.715 0 0 1 129.02-143.219 143.9 143.9 0 0 0 -159.02 143.219c0 79.4 64.6 144 144 144a144.948 144.948 0 0 0 15-.779c-72.38-7.521-129-68.884-129-143.221z" fill="#d4e1f4"/><path d="m256 412c86.019 0 156-69.981 156-156s-69.981-156-156-156a155.836 155.836 0 0 0 -156 156c0 86.019 69.981 156 156 156zm-37.572-295.051a144.436 144.436 0 0 1 37.572-4.949c79.4 0 144 64.6 144 144s-64.6 144-144 144-144-64.6-144-144a144.2 144.2 0 0 1 106.428-139.051z" fill="#2f55d4"/><path d="m200 222a6 6 0 0 0 6 6h65.024a36.6 36.6 0 0 1 -36.409 31h-28.615a6.062 6.062 0 0 0 -4.121 10.446l71.519 67.6a6 6 0 0 0 8.483-.229 6.068 6.068 0 0 0 -.24-8.537l-60.556-57.28h13.53a49.173 49.173 0 0 0 48.524-43h22.861a6 6 0 0 0 0-12h-22.861a50.494 50.494 0 0 0 -16.49-31h39.351a6 6 0 0 0 0-12h-100a6 6 0 0 0 0 12h28.615c18.306 0 33.533 14 36.409 31h-65.024a6 6 0 0 0 -6 6z" fill="#2f55d4"/><g fill="#2eca8b"><path d="m203.109 458.23a32.157 32.157 0 0 1 -13.969-32.93 6 6 0 0 0 -10.91-4.41 32.154 32.154 0 0 1 -32.93 13.97 6 6 0 0 0 -4.41 10.91 32.157 32.157 0 0 1 13.97 32.93 6 6 0 0 0 10.91 4.41 32.17 32.17 0 0 1 32.93-13.97 6 6 0 0 0 4.41-10.91zm-36.352 6.739a44.048 44.048 0 0 0 -7.726-18.212 44.074 44.074 0 0 0 18.212-7.726 44.048 44.048 0 0 0 7.726 18.212 44.074 44.074 0 0 0 -18.212 7.726z"/><path d="m458.6 96.116a47.954 47.954 0 0 1 -37.72-37.72 6 6 0 0 0 -11.768 0 47.954 47.954 0 0 1 -37.72 37.72 6 6 0 0 0 0 11.768 47.954 47.954 0 0 1 37.72 37.72 6 6 0 0 0 11.768 0 47.954 47.954 0 0 1 37.72-37.72 6 6 0 0 0 0-11.768zm-43.6 30.635a59.839 59.839 0 0 0 -24.751-24.751 59.839 59.839 0 0 0 24.751-24.751 59.839 59.839 0 0 0 24.751 24.751 59.839 59.839 0 0 0 -24.751 24.751z"/><path d="m117.6 375.116a47.954 47.954 0 0 1 -37.72-37.72 6 6 0 0 0 -11.768 0 47.954 47.954 0 0 1 -37.72 37.72 6 6 0 0 0 0 11.768 47.954 47.954 0 0 1 37.72 37.72 6 6 0 0 0 11.768 0 47.954 47.954 0 0 1 37.72-37.72 6 6 0 0 0 0-11.768zm-43.6 30.635a59.839 59.839 0 0 0 -24.751-24.751 59.839 59.839 0 0 0 24.751-24.751 59.839 59.839 0 0 0 24.751 24.751 59.839 59.839 0 0 0 -24.751 24.751z"/></g></svg>

<?xml version="1.0"?>
<svg xmlns="http://www.w3.org/2000/svg" id="Layer_1" data-name="Layer 1" viewBox="0 0 512 512" width="512px" height="512px" class="hovered-paths"><g><path d="M142,256A143.715,143.715,0,0,1,271.02,112.781,143.9,143.9,0,0,0,112,256c0,79.4,64.6,144,144,144a144.948,144.948,0,0,0,15-.779C198.62,391.7,142,330.337,142,256Z" style="fill:#d4e1f4" data-original="#D4E1F4"/><path d="M256,412c86.019,0,156-69.981,156-156S342.019,100,256,100A155.836,155.836,0,0,0,100,256C100,342.019,169.981,412,256,412ZM218.428,116.949A144.436,144.436,0,0,1,256,112c79.4,0,144,64.6,144,144S335.4,400,256,400,112,335.4,112,256A144.2,144.2,0,0,1,218.428,116.949Z" style="fill:#2F55D4" data-original="#0635C9" class="" data-old_color="#0635C9"/><path d="M200,222a6,6,0,0,0,6,6h65.024a36.6,36.6,0,0,1-36.409,31H206a6.062,6.062,0,0,0-4.121,10.446l71.519,67.6a6,6,0,0,0,8.483-.229,6.068,6.068,0,0,0-.24-8.537L221.085,271h13.53a49.173,49.173,0,0,0,48.524-43H306a6,6,0,0,0,0-12H283.139a50.494,50.494,0,0,0-16.49-31H306a6,6,0,0,0,0-12H206a6,6,0,0,0,0,12h28.615c18.306,0,33.533,14,36.409,31H206A6,6,0,0,0,200,222Z" style="fill:#2F55D4" data-original="#0635C9" class="" data-old_color="#0635C9"/><path d="M203.109,458.23A32.157,32.157,0,0,1,189.14,425.3a6,6,0,0,0-10.91-4.41A32.154,32.154,0,0,1,145.3,434.86a6,6,0,0,0-4.41,10.91A32.157,32.157,0,0,1,154.86,478.7a6,6,0,0,0,10.91,4.41A32.17,32.17,0,0,1,198.7,469.14a6,6,0,0,0,4.41-10.91Zm-36.352,6.739a44.048,44.048,0,0,0-7.726-18.212,44.074,44.074,0,0,0,18.212-7.726,44.048,44.048,0,0,0,7.726,18.212A44.074,44.074,0,0,0,166.757,464.969Z" style="fill:#2ECA8B" data-original="#1AE5BE" class="hovered-path active-path" data-old_color="#1AE5BE"/><path d="M458.6,96.116a47.954,47.954,0,0,1-37.72-37.72,6,6,0,0,0-11.768,0,47.954,47.954,0,0,1-37.72,37.72,6,6,0,0,0,0,11.768,47.954,47.954,0,0,1,37.72,37.72,6,6,0,0,0,11.768,0,47.954,47.954,0,0,1,37.72-37.72,6,6,0,0,0,0-11.768ZM415,126.751A59.839,59.839,0,0,0,390.249,102,59.839,59.839,0,0,0,415,77.249,59.839,59.839,0,0,0,439.751,102,59.839,59.839,0,0,0,415,126.751Z" style="fill:#2ECA8B" data-original="#1AE5BE" class="hovered-path active-path" data-old_color="#1AE5BE"/><path d="M117.6,375.116a47.954,47.954,0,0,1-37.72-37.72,6,6,0,0,0-11.768,0,47.954,47.954,0,0,1-37.72,37.72,6,6,0,0,0,0,11.768,47.954,47.954,0,0,1,37.72,37.72,6,6,0,0,0,11.768,0,47.954,47.954,0,0,1,37.72-37.72,6,6,0,0,0,0-11.768ZM74,405.751A59.839,59.839,0,0,0,49.249,381,59.839,59.839,0,0,0,74,356.249,59.839,59.839,0,0,0,98.751,381,59.839,59.839,0,0,0,74,405.751Z" style="fill:#2ECA8B" data-original="#1AE5BE" class="hovered-path active-path" data-old_color="#1AE5BE"/></g> </svg>
